X:60
T:Reel De Montreal
S:Bernie Waugh
R:Reel
M:4/4
L:1/8
K:G
|:d2|\
"G"g2fe dcBA|GBDG B2AG|"D"FADF AcBA|"G"GBDG B2 (3Bcd|
"G"g2fe dcBA|GBDG B2AG|"D7"FGAB cdef|1"G"g2gfg2:|2"G"g2gfg4||
K:D
|:\
"D"A2FA d2 Ad|f2dfa3b|"A7"a2g2e2g2|"D"b2a2f2d2|
"D"A2FA d2Ad|f2dfa3b|"G"a2g2"A7"e2c2|1"D"d2f2"D7"d4:|2"D"d2f2"D7"d2|]

